app/assets/images/status/delete.svg

<svg width="100" height="100" viewBox="0 0 100 100" fill="none" xmlns="http://www.w3.org/2000/svg"><g filter="url(#filter0_d_119_1082)"><path d="M50 94C74.3005 94 94 74.3005 94 50C94 25.6995 74.3005 6 50 6C25.6995 6 6 25.6995 6 50C6 74.3005 25.6995 94 50 94Z" fill="white"/></g><path d="M49.9994 89.6009C71.8704 89.6009 89.6003 71.871 89.6003 50C89.6003 28.129 71.8704 10.399 49.9994 10.399C28.1284 10.399 10.3984 28.129 10.3984 50C10.3984 71.871 28.1284 89.6009 49.9994 89.6009Z" fill="#E21C3D"/><path d="M50.0002 85.6408C69.6841 85.6408 85.6411 69.6839 85.6411 50C85.6411 30.3161 69.6841 14.3591 50.0002 14.3591C30.3163 14.3591 14.3594 30.3161 14.3594 50C14.3594 69.6839 30.3163 85.6408 50.0002 85.6408Z" fill="white"/><path d="M50.0012 68.6906C39.6944 68.6906 31.3105 60.3067 31.3105 50C31.3105 39.6932 39.6944 31.3093 50.0012 31.3093C60.3079 31.3093 68.6918 39.6932 68.6918 50C68.6918 60.3067 60.3079 68.6906 50.0012 68.6906Z" fill="#E21C3D"/><path d="M50.001 31.3094V68.6907C60.3077 68.6907 68.6916 60.3068 68.6916 50C68.6916 39.6933 60.3077 31.3094 50.001 31.3094Z" fill="#B51E23"/><path d="M54.134 46.8994V57.237H45.8614V46.8994H54.134ZM52.5821 40.6949H47.4133L46.3808 41.7274H42.7607V43.7956H57.2347V41.7274H53.6147L52.5821 40.6949ZM56.2022 44.8312H43.7964V57.237C43.7964 58.3747 44.7269 59.3052 45.8645 59.3052H54.1371C55.2748 59.3052 56.2053 58.3747 56.2053 57.237V44.8312H56.2022Z" fill="white"/><defs><filter id="filter0_d_119_1082" x="0" y="0" width="100" height="100" filterUnits="userSpaceOnUse" color-interpolation-filters="sRGB"><feFlood flood-opacity="0" result="BackgroundImageFix"/><feColorMatrix in="SourceAlpha" type="matrix" values="0 0 0 0 0 0 0 0 0 0 0 0 0 0 0 0 0 0 127 0" result="hardAlpha"/><feOffset/><feGaussianBlur stdDeviation="3"/><feColorMatrix type="matrix" values="0 0 0 0 0 0 0 0 0 0 0 0 0 0 0 0 0 0 0.24 0"/><feBlend mode="normal" in2="BackgroundImageFix" result="effect1_dropShadow_119_1082"/><feBlend mode="normal" in="SourceGraphic" in2="effect1_dropShadow_119_1082" result="shape"/></filter></defs></svg>

<svg width="100" height="100" viewBox="0 0 100 100" fill="none" xmlns="http://www.w3.org/2000/svg"><g filter="url(#a)"><path d="M50 94c24.3 0 44-19.7 44-44S74.3 6 50 6 6 25.7 6 50s19.7 44 44 44Z" fill="#fff"/></g><path d="M50 89.6c21.87 0 39.6-17.729 39.6-39.6 0-21.871-17.73-39.601-39.6-39.601-21.872 0-39.602 17.73-39.602 39.601S28.128 89.6 50 89.6Z" fill="#E21C3D"/><path d="M50 85.64c19.684 0 35.641-15.956 35.641-35.64s-15.957-35.64-35.64-35.64c-19.685 0-35.642 15.956-35.642 35.64S30.316 85.64 50 85.64Z" fill="#fff"/><path d="M50.001 68.69c-10.307 0-18.69-8.383-18.69-18.69 0-10.307 8.383-18.69 18.69-18.69 10.307 0 18.69 8.383 18.69 18.69 0 10.307-8.383 18.69-18.69 18.69Z" fill="#E21C3D"/><path d="M50.001 31.31v37.38c10.307 0 18.69-8.383 18.69-18.69 0-10.307-8.383-18.69-18.69-18.69Z" fill="#B51E23"/><path d="M54.134 46.9v10.337h-8.273V46.899h8.273Zm-1.552-6.205h-5.169l-1.032 1.032h-3.62v2.069h14.474v-2.069h-3.62l-1.033-1.032Zm3.62 4.136H43.796v12.406c0 1.138.93 2.068 2.069 2.068h8.272c1.138 0 2.068-.93 2.068-2.068V44.831h-.003Z" fill="#fff"/><defs><filter id="a" x="0" y="0" width="100" height="100" filterUnits="userSpaceOnUse" color-interpolation-filters="sRGB"><feFlood flood-opacity="0" result="BackgroundImageFix"/><feColorMatrix in="SourceAlpha" values="0 0 0 0 0 0 0 0 0 0 0 0 0 0 0 0 0 0 127 0" result="hardAlpha"/><feOffset/><feGaussianBlur stdDeviation="3"/><feColorMatrix values="0 0 0 0 0 0 0 0 0 0 0 0 0 0 0 0 0 0 0.24 0"/><feBlend in2="BackgroundImageFix" result="effect1_dropShadow_119_1082"/><feBlend in="SourceGraphic" in2="effect1_dropShadow_119_1082" result="shape"/></filter></defs></svg>
